X:1
T:Wohlfahrt Violin Studies - #1
T:Wohlfahrt Foundation Studies - No. 6
T:Op 45 No 4
T:Franz Wohlfahrt
C:Franz Wohlfahrt
%%score 1 { 2 | 3 }
L:1/8
Q:1/4=80
M:2/4
K:G
V:1 treble nm="Violin"
V:2 treble nm="Piano"
V:3 bass 
V:1
"G""^6.""^Under Construction - 8/14/2017" d B/ c/ d g/ a/ | b B/ c/ d e/ d/ |"D7" c A/ B/ c b/ a/ | %3
"G" g B/ c/ d2 |"G" d B/ c/ d g/ a/ | b B/ c/ d e/ d/ |"A7" ^c b/ a/ g B/ c/ |"D" d A/ F/ D e/ d/ | %8
"D7" =c f/ g/ a b/ a/ |"G" g B/ c/ d e/ d/ |"D7" =c f/ g/ a b/ a/ |"G" g B/ c/ d g/ a/ | %12
"B7" b f/ ^d/ B d/ f/ |"Em" a g/ f/ g f/ e/ |"A7" d ^c/ B/ A f/ g/ |"D7" b B/ ^c/ d c/ d/ | %16
"A7" e A/ A/ A f/ g/ |"D" b a/ a/ a b/ a/ |"A7" g A/ A/ A a/ g/ |"D" f d/ d/ d ^c/ d/ | %20
 e A/ A/ A f/ g/ | b a/ a/ a ^c/ d/ | e g/ b/ a B/ ^c/ | d ^c/ d/ e d/ c/ | d ^c/ d/ e d/ c/ | %25
 d A/ A/ A e/ d/ | d B/ B/ B e/ d/ | d =c/ c/ c f/ g/ | b a/ ^g/ a B/ c/ | d B/ c/ d g/ a/ | %30
 b B/ c/ d e/ d/ | c A/ B/ c b/ a/ | g B/ c/ d2 | d B/ c/ d g/ a/ | b B/ c/ d g/ f/ | %35
 e a/ g/ f b/ a/ | g b/ g/ d e/ f/ | g b/ g/ d e/ f/ | g b/ g/ d g/ d/ | B d/ B/ G B/ G/ | %40
 D G/ D/ B, D/ B,/ | G, z z2 :| %42
V:2
"G" dB/c/ dg/a/ | bB/c/ de/d/ |"D7" cA/B/ cb/a/ |"G" gB/c/ d2 |"G" dB/c/ dg/a/ | bB/c/ de/d/ | %6
"A7" ^cb/a/ gB/c/ |"D" dA/F/ De/d/ |"D7" =cf/g/ ab/a/ |"G" gB/c/ de/d/ |"D7" =cf/g/ ab/a/ | %11
"G" gB/c/ dg/a/ |"B7" bf/^d/ Bd/f/ |"Em" ag/f/ gf/e/ |"A7" d^c/B/ Af/g/ |"D7" bB/^c/ dc/d/ | %16
"A7" eA/A/ Af/g/ |"D" ba/a/ ab/a/ |"A7" gA/A/ Aa/g/ |"D" fd/d/ d^c/d/ | eA/A/ Af/g/ | %21
 ba/a/ a^c/d/ | eg/b/ aB/^c/ | d^c/d/ ed/c/ | d^c/d/ ed/c/ | dA/A/ Ae/d/ | dB/B/ Be/d/ | %27
 d=c/c/ cf/g/ | ba/^g/ aB/c/ | dB/c/ dg/a/ | bB/c/ de/d/ | cA/B/ cb/a/ | gB/c/ d2 | dB/c/ dg/a/ | %34
 bB/c/ dg/f/ | ea/g/ fb/a/ | gb/g/ de/f/ | gb/g/ de/f/ | gb/g/ dg/d/ | Bd/B/ GB/G/ | %40
 DG/D/ B,D/B,/ | G, z z2 :| %42
V:3
 [G,B,D]2 [G,B,D]2 | [G,B,D]2 [G,B,D]2 | [D,F,A,]2 [D,F,A,]2 | [G,B,D]2 [G,B,D]2 | %4
 G,/D/B,/D/ G,/D/B,/D/ | G,/D/B,/D/ G,/D/B,/D/ | A,/E/^C/E/ A,/E/C/E/ | D,/A,/F,/A,/ D,/A,/F,/A,/ | %8
 [D,F,A,]2 [D,F,A,]2 | [G,B,D]2 [G,B,D]2 | [D,F,A,]2 [D,F,A,]2 | [G,B,D]2 [G,B,D]2 | %12
 [B,,^D,F,A,]2 [B,,D,F,A,]2 | [E,G,B,]2 [E,G,B,]2 | [A,,^C,E,A,]2 [A,,C,E,A,]2 | %15
 [D,F,A,]2 [D,F,A,]2 | [A,,^C,E,]2 [A,,C,E,]2 | [D,F,A,]2 [D,F,A,]2 | [A,,^C,E,]2 [A,,C,E,]2 | %19
 [D,F,A,]2 [D,F,A,]2 | [A,,^C,E,]2 [A,,C,E,]2 | [D,F,A,]2 [D,F,A,]2 | [A,,^C,E,]2 [A,,C,E,]2 | %23
 [D,F,A,]2 [D,F,A,]2 | z4 | z4 | z4 | z4 | z4 | z4 | z4 | z4 | z4 | z4 | z4 | z4 | z4 | z4 | z4 | %39
 z4 | z4 | z4 :| %42

